Numix-GalliumOS/22/status/locked.svg

<?xml version="1.0" encoding="UTF-8" standalone="no"?>
<svg
   xmlns:dc="http://purl.org/dc/elements/1.1/"
   xmlns:cc="http://creativecommons.org/ns#"
   xmlns:rdf="http://www.w3.org/1999/02/22-rdf-syntax-ns#"
   xmlns:svg="http://www.w3.org/2000/svg"
   xmlns="http://www.w3.org/2000/svg"
   xmlns:sodipodi="http://sodipodi.sourceforge.net/DTD/sodipodi-0.dtd"
   xmlns:inkscape="http://www.inkscape.org/namespaces/inkscape"
   width="22"
   height="22"
   viewBox="0 0 22 22"
   id="svg2"
   version="1.1"
   inkscape:version="0.91 r"
   sodipodi:docname="xfce-system-lock.svg">
  <metadata
     id="metadata10">
    <rdf:RDF>
      <cc:Work
         rdf:about="">
        <dc:format>image/svg+xml</dc:format>
        <dc:type
           rdf:resource="http://purl.org/dc/dcmitype/StillImage" />
        <dc:title />
      </cc:Work>
    </rdf:RDF>
  </metadata>
  <defs
     id="defs8" />
  <sodipodi:namedview
     pagecolor="#ffffff"
     bordercolor="#666666"
     borderopacity="1"
     objecttolerance="10"
     gridtolerance="10"
     guidetolerance="10"
     inkscape:pageopacity="0"
     inkscape:pageshadow="2"
     inkscape:window-width="1920"
     inkscape:window-height="1056"
     id="namedview6"
     showgrid="true"
     inkscape:zoom="21.454545"
     inkscape:cx="6.6050355"
     inkscape:cy="4.7793157"
     inkscape:window-x="0"
     inkscape:window-y="24"
     inkscape:window-maximized="1"
     inkscape:current-layer="svg2">
    <inkscape:grid
       type="xygrid"
       id="grid4138" />
  </sodipodi:namedview>
  <path
     style="fill:#ed535b"
     d="M 10.400337,2.999984 C 10,3 7,3 6.9999845,6 c -1.55e-5,3 0,3 0,3 L 4,9 4,19 18,19 18,9 15.000094,9 c 0,0 -9.4e-5,0 0,-3 C 15.000188,3 12,3 11.599664,2.999984 11,2.99996 11,2.99996 10.400337,2.999984 Z M 10.94266,6 C 11.673136,6.0017071 10,6 11.060254,6 12,6 11.999746,7 11.999746,7 l 0,2 -2.0004063,0 0,-2 c 0,0 6.633e-4,-1.0022029 0.9433203,-1 z"
     id="path4"
     inkscape:connector-curvature="0"
     sodipodi:nodetypes="ssccccccsssssccccs" />
</svg>

<svg xmlns="http://www.w3.org/2000/svg" viewBox="0 0 22 22">
 <path d="m 10.4 3 c -0.4 0 -3.4 0 -3.4 3 c 0 3 0 3 0 3 l -3 0 0 10 14 0 0 -10 -3 0 c 0 0 0 0 0 -3 c 0 -3 -3 -3 -3.4 -3 -0.6 0 -0.6 0 -1.199 0 m 0.542 3 c 0.73 0.002 -0.943 0 0.118 0 0.94 0 0.939 1 0.939 1 l 0 2 -2 0 0 -2 c 0 0 0.001 -1 0.943 -1 z" style="fill:#ed535b"/>
</svg>
